gama.ui.shared/icons_svg/dark/status/status.progress4.svg

<svg height="24.75" viewBox="-778.872 -3408.886 24.75 24.75" width="24.75" xmlns="http://www.w3.org/2000/svg"><path d="m-772.0477-3392.066c1.3333 1.665 3.35695 2.6666 5.5517 2.6666 3.7635 0 6.8696-2.9326 7.09775-6.6706.01495-.245.2257-.4317.4707-.4167.24505.015.4315.2257.41655.4707-.2568 4.2064-3.7509 7.5054-7.985 7.5054-2.4559 0-4.7224-1.1154-6.2222-2.9708v2.5264c0 .2455-.199.4444-.4444.4444-.2455 0-.4445-.1989-.4445-.4444v-3.5556c0-.2454.199-.4444.4445-.4444h3.5555c.2455 0 .4445.199.4445.4444 0 .2456-.199.4446-.4445.4446zm11.1035-8.889c-1.3332-1.665-3.3568-2.6667-5.5518-2.6667-3.7754 0-6.8875 2.9507-7.0996 6.703-.0138.245-.2237.4325-.4688.4187-.2451-.014-.4325-.224-.41865-.469.23865-4.222 3.73955-7.5416 7.98705-7.5416 2.45615 0 4.7226 1.1158 6.2223 2.9709v-2.5263c0-.2456.19895-.4446.4444-.4446.2455 0 .44445.199.44445.4446v3.5554c0 .2456-.19895.4446-.44445.4446h-3.55555c-.24545 0-.44445-.199-.44445-.4446 0-.2454.199-.4444.44445-.4444z" fill="#8eed62"/></svg>

<?xml version="1.0" encoding="UTF-8" standalone="no"?>
<!DOCTYPE svg PUBLIC "-//W3C//DTD SVG 1.1//EN" "http://www.w3.org/Graphics/SVG/1.1/DTD/svg11.dtd">
<svg xmlns="http://www.w3.org/2000/svg" xmlns:xl="http://www.w3.org/1999/xlink" version="1.1" xmlns:dc="http://purl.org/dc/elements/1.1/" viewBox="-778.872 -3408.8856 24.75 24.75" width="24.75" height="24.75">
  <defs/>
  <g id="SOURCES" stroke-opacity="1" fill="none" stroke="none" fill-opacity="1" stroke-dasharray="none">
    <title>SOURCES</title>
    <g id="SOURCES_Dark">
      <title>Dark</title>
      <g id="Graphic_11605"/>
      <g id="Graphic_11604"/>
      <g id="Graphic_11606">
        <path d="M -772.0477 -3392.066 C -770.7144 -3390.401 -768.69075 -3389.3994 -766.496 -3389.3994 C -762.7325 -3389.3994 -759.6264 -3392.332 -759.39825 -3396.07 C -759.3833 -3396.315 -759.17255 -3396.5017 -758.92755 -3396.4867 C -758.6825 -3396.4717 -758.49605 -3396.261 -758.511 -3396.016 C -758.7678 -3391.8096 -762.2619 -3388.5106 -766.496 -3388.5106 C -768.9519 -3388.5106 -771.2184 -3389.626 -772.7182 -3391.4814 L -772.7182 -3388.955 C -772.7182 -3388.7095 -772.9172 -3388.5106 -773.1626 -3388.5106 C -773.4081 -3388.5106 -773.6071 -3388.7095 -773.6071 -3388.955 L -773.6071 -3392.5106 C -773.6071 -3392.756 -773.4081 -3392.955 -773.1626 -3392.955 L -769.6071 -3392.955 C -769.3616 -3392.955 -769.1626 -3392.756 -769.1626 -3392.5106 C -769.1626 -3392.265 -769.3616 -3392.066 -769.6071 -3392.066 L -772.0477 -3392.066 Z M -760.9442 -3400.955 C -762.2774 -3402.62 -764.301 -3403.6217 -766.496 -3403.6217 C -770.2714 -3403.6217 -773.3835 -3400.671 -773.5956 -3396.9187 C -773.6094 -3396.6737 -773.8193 -3396.4862 -774.0644 -3396.5 C -774.3095 -3396.514 -774.4969 -3396.724 -774.48305 -3396.969 C -774.2444 -3401.191 -770.7435 -3404.5106 -766.496 -3404.5106 C -764.03985 -3404.5106 -761.7734 -3403.3948 -760.2737 -3401.5397 L -760.2737 -3404.066 C -760.2737 -3404.3116 -760.07475 -3404.5106 -759.8293 -3404.5106 C -759.5838 -3404.5106 -759.38485 -3404.3116 -759.38485 -3404.066 L -759.38485 -3400.5106 C -759.38485 -3400.265 -759.5838 -3400.066 -759.8293 -3400.066 L -763.38485 -3400.066 C -763.6303 -3400.066 -763.8293 -3400.265 -763.8293 -3400.5106 C -763.8293 -3400.756 -763.6303 -3400.955 -763.38485 -3400.955 Z" fill="#8eed62"/>
      </g>
    </g>
  </g>
</svg>
